X: 7959
T:Trippevals
R:Waltz
O:Denmark
M:3/4
K:G
D2|\
G,B, DG Bd | ed BD GB | dc AD FA | ed BG DB, |\
G,B, DG Bd | ed BD GB | dc AD FA | G2G2 :|
|: [D2d2] |\
bb aa gg | ff ee dd | gg ff ee | dd cc BB |\
cc BB AA | GG FF EE | DF AF [DA]F | G4 :|
